docgen/src/images/e-commerce.svg

<svg width="63" height="54" viewBox="0 0 63 54" xmlns="http://www.w3.org/2000/svg"><title>e-commerce</title><defs><linearGradient x1="10.361%" y1="87.361%" x2="82.981%" y2="1.146%" id="a"><stop stop-color="#2EDE98" offset="0%"/><stop stop-color="#1CC7D0" offset="100%"/></linearGradient></defs><path d="M9.8 39h41.6c.4 0 .8-.2.9-.6l10.4-25.9c.1-.3.1-.7-.1-.9-.2-.3-.5-.4-.8-.4H11.4v-.6C11.4 5 6.8.4 1.2.4c-.6 0-1 .4-1 1s.4 1 1 1c4.5 0 8.2 3.7 8.2 8.2V37c-2.5.2-4.4 2.3-4.4 4.8 0 2.6 2.2 4.8 4.8 4.8h.3c0 .3-.1.5-.1.8 0 3.1 2.6 5.7 5.7 5.7s5.7-2.6 5.7-5.7c0-.3 0-.6-.1-.9h22.8c0 .3-.1.6-.1.9 0 3.1 2.6 5.7 5.7 5.7s5.7-2.6 5.7-5.7-2.6-5.7-5.7-5.7c-2.1 0-3.9 1.1-4.9 2.8H20.6c-1-1.7-2.8-2.8-4.9-2.8-2.1 0-4 1.2-5 2.9h-.9c-1.5 0-2.8-1.3-2.8-2.8C7 40.3 8.3 39 9.8 39zm50.5-25.9L50.7 37H11.4V13.1h48.9zM49.7 43.7c2 0 3.7 1.7 3.7 3.7s-1.7 3.7-3.7 3.7-3.7-1.7-3.7-3.7 1.7-3.7 3.7-3.7zm-34 0c2 0 3.7 1.7 3.7 3.7s-1.7 3.7-3.7 3.7-3.7-1.7-3.7-3.7c0-.4.1-.7.2-1.1.2-.2.3-.4.3-.7.6-1.1 1.8-1.9 3.2-1.9z" fill-rule="nonzero" fill="url(#a)"/></svg>

<?xml version="1.0" encoding="UTF-8"?>
<svg width="63px" height="54px" viewBox="0 0 63 54" version="1.1" xmlns="http://www.w3.org/2000/svg" xmlns:xlink="http://www.w3.org/1999/xlink">
    <!-- Generator: Sketch 42 (36781) - http://www.bohemiancoding.com/sketch -->
    <title>e-commerce</title>
    <desc>Created with Sketch.</desc>
    <defs>
        <linearGradient x1="10.934%" y1="-27.347%" x2="73.434%" y2="79.684%" id="linearGradient-1">
            <stop stop-color="#2EDE98" offset="0%"></stop>
            <stop stop-color="#1CC7D0" offset="100%"></stop>
        </linearGradient>
        <linearGradient x1="10.3607912%" y1="87.3612903%" x2="82.9811096%" y2="1.14611006%" id="linearGradient-2">
            <stop stop-color="#2EDE98" offset="0%"></stop>
            <stop stop-color="#1CC7D0" offset="100%"></stop>
        </linearGradient>
    </defs>
    <g id="Page-1" stroke="none" stroke-width="1" fill="none" fill-rule="evenodd">
        <g id="e-commerce" fill-rule="nonzero" fill="url(#linearGradient-2)">
            <path d="M9.8,39 L10.4,39 L40.6,39 L51.4,39 C51.8,39 52.2,38.8 52.3,38.4 L62.7,12.5 C62.8,12.2 62.8,11.8 62.6,11.6 C62.4,11.3 62.1,11.2 61.8,11.2 L11.4,11.2 L11.4,10.6 C11.4,5 6.8,0.4 1.2,0.4 C0.6,0.4 0.2,0.8 0.2,1.4 C0.2,2 0.6,2.4 1.2,2.4 C5.7,2.4 9.4,6.1 9.4,10.6 L9.4,12.2 L9.4,37 C6.9,37.2 5,39.3 5,41.8 C5,44.4 7.2,46.6 9.8,46.6 L10.1,46.6 C10.1,46.9 10,47.1 10,47.4 C10,50.5 12.6,53.1 15.7,53.1 C18.8,53.1 21.4,50.5 21.4,47.4 C21.4,47.1 21.4,46.8 21.3,46.5 L44.1,46.5 C44.1,46.8 44,47.1 44,47.4 C44,50.5 46.6,53.1 49.7,53.1 C52.8,53.1 55.4,50.5 55.4,47.4 C55.4,44.3 52.8,41.7 49.7,41.7 C47.6,41.7 45.8,42.8 44.8,44.5 L20.6,44.5 C19.6,42.8 17.8,41.7 15.7,41.7 C13.6,41.7 11.7,42.9 10.7,44.6 L9.8,44.6 C8.3,44.6 7,43.3 7,41.8 C7,40.3 8.3,39 9.8,39 Z M60.3,13.1 L50.7,37 L40.6,37 L11.4,37 L11.4,13.1 L60.3,13.1 Z M49.7,43.7 C51.7,43.7 53.4,45.4 53.4,47.4 C53.4,49.4 51.7,51.1 49.7,51.1 C47.7,51.1 46,49.4 46,47.4 C46,45.4 47.7,43.7 49.7,43.7 Z M15.7,43.7 C17.7,43.7 19.4,45.4 19.4,47.4 C19.4,49.4 17.7,51.1 15.7,51.1 C13.7,51.1 12,49.4 12,47.4 C12,47 12.1,46.7 12.2,46.3 C12.4,46.1 12.5,45.9 12.5,45.6 L12.5,45.6 C13.1,44.5 14.3,43.7 15.7,43.7 Z" id="Shape"></path>
        </g>
    </g>
</svg>
